images/decorative/header/phone-icon.svg

<svg width="15" height="15" viewBox="0 0 15 15" fill="none" xmlns="http://www.w3.org/2000/svg">
<path d="M11.404 9.92279C10.9139 9.43898 10.3021 9.43898 9.8152 9.92279C9.44375 10.2911 9.0723 10.6594 8.7071 11.034C8.60721 11.137 8.52294 11.1588 8.4012 11.0902C8.16085 10.9591 7.9049 10.853 7.67391 10.7094C6.59703 10.032 5.69494 9.16118 4.89587 8.18108C4.49945 7.69414 4.14673 7.17288 3.90014 6.58606C3.8502 6.46745 3.85956 6.38942 3.95632 6.29266C4.32777 5.9337 4.68985 5.56538 5.05506 5.19706C5.56385 4.68516 5.56385 4.08586 5.05194 3.57083C4.76165 3.27743 4.47135 2.99026 4.18106 2.69685C3.88141 2.3972 3.58488 2.09443 3.2821 1.7979C2.79204 1.32033 2.18025 1.32033 1.69331 1.80102C1.31874 2.16934 0.959777 2.54703 0.578966 2.9091C0.226247 3.24309 0.0483275 3.65199 0.0108707 4.12956C-0.048436 4.90677 0.14197 5.64029 0.41041 6.35508C0.959777 7.83461 1.79631 9.1487 2.81077 10.3535C4.18106 11.9829 5.81668 13.272 7.7301 14.2022C8.59161 14.6204 9.48433 14.9419 10.4551 14.995C11.1231 15.0325 11.7036 14.8639 12.1687 14.3426C12.4871 13.9868 12.8461 13.6622 13.1832 13.3219C13.6826 12.8163 13.6857 12.2045 13.1894 11.7051C12.5964 11.1089 12.0002 10.5159 11.404 9.92279Z" fill="#122659"/>
<path d="M10.8075 7.43508L11.9593 7.23843C11.7783 6.18029 11.2789 5.22203 10.5204 4.46042C9.71817 3.65823 8.70371 3.15257 7.58625 2.9965L7.42394 4.15453C8.28857 4.27626 9.07516 4.66643 9.69632 5.28758C10.2831 5.8744 10.6671 6.61728 10.8075 7.43508Z" fill="#122659"/>
<path d="M12.609 2.42842C11.2793 1.09872 9.59684 0.259073 7.73961 0L7.57729 1.15802C9.1817 1.38276 10.6363 2.11004 11.785 3.25558C12.8743 4.34493 13.5891 5.72145 13.8482 7.23531L15 7.03866C14.6972 5.28446 13.8701 3.69257 12.609 2.42842Z" fill="#122659"/>
</svg>

<svg width="15" height="15" fill="none" xmlns="http://www.w3.org/2000/svg"><path d="M11.404 9.923c-.49-.484-1.102-.484-1.589 0-.371.368-.743.736-1.108 1.111-.1.103-.184.125-.306.056-.24-.13-.496-.237-.727-.38-1.077-.678-1.98-1.549-2.778-2.529-.397-.487-.75-1.008-.996-1.595-.05-.119-.04-.197.056-.293.372-.36.734-.728 1.1-1.096.508-.512.508-1.111-.004-1.626-.29-.294-.58-.58-.87-.874-.3-.3-.597-.603-.9-.9-.49-.477-1.102-.477-1.589.004C1.32 2.169.96 2.547.58 2.909c-.353.334-.53.743-.568 1.22-.06.778.131 1.511.4 2.226.549 1.48 1.385 2.794 2.4 3.998a14.854 14.854 0 0 0 4.92 3.85c.86.417 1.753.739 2.724.792.668.038 1.249-.131 1.714-.652.318-.356.677-.68 1.014-1.021.5-.506.503-1.117.006-1.617-.593-.596-1.189-1.19-1.785-1.782ZM10.807 7.435l1.152-.197A5.147 5.147 0 0 0 10.52 4.46a5.12 5.12 0 0 0-2.934-1.463l-.162 1.158a3.972 3.972 0 0 1 2.272 1.133c.587.586.971 1.33 1.111 2.147ZM12.609 2.428A8.493 8.493 0 0 0 7.739 0l-.162 1.158a7.364 7.364 0 0 1 4.208 2.098 7.359 7.359 0 0 1 2.063 3.98L15 7.038a8.555 8.555 0 0 0-2.391-4.61Z" fill="#122659"/></svg>
